Numix/scalable/categories/applications-games-symbolic.svg

<?xml version="1.0" encoding="UTF-8" standalone="no"?>
<!-- Created with Inkscape (http://www.inkscape.org/) -->

<svg
   xmlns:dc="http://purl.org/dc/elements/1.1/"
   xmlns:cc="http://creativecommons.org/ns#"
   xmlns:rdf="http://www.w3.org/1999/02/22-rdf-syntax-ns#"
   xmlns:svg="http://www.w3.org/2000/svg"
   xmlns="http://www.w3.org/2000/svg"
   xmlns:sodipodi="http://sodipodi.sourceforge.net/DTD/sodipodi-0.dtd"
   xmlns:inkscape="http://www.inkscape.org/namespaces/inkscape"
   version="1.1"
   width="16"
   height="16"
   id="svg7384"
   inkscape:version="0.91 r"
   sodipodi:docname="applications-games-symbolic.svg">
  <sodipodi:namedview
     pagecolor="#ffffff"
     bordercolor="#666666"
     borderopacity="1"
     objecttolerance="10"
     gridtolerance="10"
     guidetolerance="10"
     inkscape:pageopacity="0"
     inkscape:pageshadow="2"
     inkscape:window-width="1920"
     inkscape:window-height="1056"
     id="namedview35"
     showgrid="true"
     inkscape:zoom="41.7193"
     inkscape:cx="12.667092"
     inkscape:cy="5.6315235"
     inkscape:window-x="0"
     inkscape:window-y="24"
     inkscape:window-maximized="1"
     inkscape:current-layer="svg7384">
    <inkscape:grid
       type="xygrid"
       id="grid4149" />
  </sodipodi:namedview>
  <title
     id="title9167">elementary Symbolic Icon Theme</title>
  <defs
     id="defs9" />
  <metadata
     id="metadata90">
    <rdf:RDF>
      <cc:Work
         rdf:about="">
        <dc:format>image/svg+xml</dc:format>
        <dc:type
           rdf:resource="http://purl.org/dc/dcmitype/StillImage" />
        <dc:title>elementary Symbolic Icon Theme</dc:title>
      </cc:Work>
    </rdf:RDF>
  </metadata>
  <path
     sodipodi:nodetypes="sssccccccssssccccccccccccccccccccccccccccccccccccc"
     inkscape:connector-curvature="0"
     id="path4"
     d="m 5.9046569,3.0332597 c -1.0094668,0 -1.4226169,0.09053 -1.7449055,0.1850971 -0.5019272,0.147278 -1.014782,0.4107255 -1.3362651,0.8233796 -1.88267289,2.4165872 -3.10610682,8.1393046 -2.76711242,8.7641966 0.3389951,0.62742 3.38972232,-0.622477 4.98856262,-3.0284327 0.121431,-0.179625 0.344373,-0.535985 0.344373,-0.535985 l 5.2213785,0 c 0,0 0.222939,0.35636 0.344373,0.535985 1.59887,2.4059557 4.649561,3.6558527 4.988562,3.0284327 C 16.282625,12.181041 15.059217,6.4583236 13.176512,4.0417364 12.855022,3.6290823 12.342182,3.3656348 11.840246,3.2183568 11.517951,3.1237893 11.104826,3.0332597 10.09534,3.0332597 Z m 5.2116781,1.5941795 c 0.271972,0.010381 0.505473,0.196697 0.575975,0.4595891 0.08947,0.3315638 -0.107211,0.672783 -0.438954,0.7615345 -0.331525,0.088617 -0.672062,-0.1085439 -0.760289,-0.4401864 -0.08869,-0.3311715 0.107817,-0.6715522 0.438955,-0.7603227 0.06006,-0.016059 0.122189,-0.023004 0.184313,-0.020614 z M 4,5 5,5 5,6 6,6 6,7 5,7 l 0,0.9997784 -1,0 L 4,7 3,7 3,6 4,6 Z m 8.638124,0.5053872 c 0.272314,0.010538 0.505923,0.1974313 0.575977,0.4608018 0.08869,0.3311707 -0.107817,0.6715528 -0.438955,0.7603225 -0.331549,0.089473 -0.672753,-0.1072162 -0.761501,-0.4389736 -0.08939,-0.331933 0.107933,-0.6733228 0.440167,-0.7615354 0.06006,-0.016059 0.122189,-0.023013 0.184312,-0.020615 z m -2.399699,0.6426966 c 0.272314,0.010538 0.505922,0.1974302 0.575976,0.4608007 0.08869,0.3311715 -0.107817,0.6715521 -0.438955,0.7603227 C 10.04429,7.4579049 9.7039231,7.261385 9.6151578,6.9302335 9.5264634,6.599062 9.7229747,6.2586807 10.054112,6.1699109 c 0.06,-0.016473 0.122129,-0.023824 0.184313,-0.021827 z m 1.458735,0.87916 c 0.295311,-0.018675 0.562756,0.1736761 0.639032,0.4595882 0.08861,0.3315407 -0.108539,0.6720918 -0.440167,0.7603235 -0.331158,0.088698 -0.671523,-0.107823 -0.760289,-0.4389746 -0.08869,-0.3311715 0.107817,-0.671552 0.438954,-0.7603226 0.04003,-0.010943 0.08106,-0.017855 0.12247,-0.020614 z"
     style="fill:#bebebe;fill-opacity:1" />
</svg>

<!-- Created with Inkscape (http://www.inkscape.org/) -->
<svg xmlns="http://www.w3.org/2000/svg" viewBox="0 0 16 16">
 <path d="m 5.905 3.03 c -1.01 0 -1.423 0.091 -1.745 0.185 -0.502 0.147 -1.015 0.411 -1.336 0.823 -1.883 2.417 -3.106 8.139 -2.767 8.764 0.339 0.627 3.39 -0.622 4.989 -3.03 0.121 -0.18 0.344 -0.536 0.344 -0.536 l 5.221 0 c 0 0 0.223 0.356 0.344 0.536 1.599 2.406 4.65 3.656 4.989 3.03 c 0.339 -0.625 -0.884 -6.348 -2.767 -8.764 -0.321 -0.413 -0.834 -0.676 -1.336 -0.823 -0.322 -0.095 -0.735 -0.185 -1.745 -0.185 m 1.021 1.594 c 0.272 0.01 0.505 0.197 0.576 0.46 0.089 0.332 -0.107 0.673 -0.439 0.762 -0.332 0.089 -0.672 -0.109 -0.76 -0.44 -0.089 -0.331 0.108 -0.672 0.439 -0.76 0.06 -0.016 0.122 -0.023 0.184 -0.021 z m -7.116 0.373 1 0 0 1 1 0 0 1 -1 0 l 0 1 -1 0 l 0 -1 -1 0 0 -1 1 0 m 8.638 -0.495 c 0.272 0.011 0.506 0.197 0.576 0.461 0.089 0.331 -0.108 0.672 -0.439 0.76 -0.332 0.089 -0.673 -0.107 -0.762 -0.439 -0.089 -0.332 0.108 -0.673 0.44 -0.762 0.06 -0.016 0.122 -0.023 0.184 -0.021 z m -2.4 0.643 c 0.272 0.011 0.506 0.197 0.576 0.461 0.089 0.331 -0.108 0.672 -0.439 0.76 c -0.331 0.089 -0.672 -0.108 -0.76 -0.439 -0.089 -0.331 0.108 -0.672 0.439 -0.76 c 0.06 -0.016 0.122 -0.024 0.184 -0.022 z m 1.459 0.879 c 0.295 -0.019 0.563 0.174 0.639 0.46 0.089 0.332 -0.109 0.672 -0.44 0.76 -0.331 0.089 -0.672 -0.108 -0.76 -0.439 -0.089 -0.331 0.108 -0.672 0.439 -0.76 0.04 -0.011 0.081 -0.018 0.122 -0.021 z" style="fill:#bebebe;fill-opacity:1"/>
</svg>
